;Generated with Cura_SteamEngine 15.01
; Default start code
G28 ; Home extruder
G1 Z15 F100
M107 ; Turn off fan
G90 ; Absolute positioning
M82 ; Extruder in absolute mode
; Activate all used extruder
M104 T0 S210
G92 E0 ; Reset extruder position
; Wait for all used extruders to reach temperature
M109 T0 S210
;Layer count: 128
;LAYER:0
M107
G0 F5100 X91.062 Y91.076 Z0.200
G0 X90.760 Y91.474
;TYPE:SKIRT
G1 F2400 X91.062 Y91.076 E0.01658
G1 X93.685 Y89.062 E0.12629
G1 X96.731 Y87.800 E0.23568
G1 X100.000 Y87.371 E0.34506
G1 X103.268 Y87.800 E0.45442
G1 X106.296 Y89.054 E0.56315
G1 X106.704 Y89.360 E0.58007
G1 X108.930 Y91.071 E0.67322
G1 X110.937 Y93.685 E0.78256
G1 X111.991 Y96.232 E0.87401
G1 X112.196 Y96.715 E0.89142
G1 X112.559 Y99.469 E0.98358
G1 X112.631 Y99.987 E1.00093
G1 X112.198 Y103.268 E1.11073
G1 X110.945 Y106.296 E1.21945
G1 X110.639 Y106.704 E1.23637
G1 X108.916 Y108.946 E1.33018
G1 X108.494 Y109.262 E1.34767
G1 X106.316 Y110.936 E1.43881
G1 X103.268 Y112.198 E1.54825
G1 X100.000 Y112.629 E1.65762
G1 X96.730 Y112.198 E1.76704
G1 X93.685 Y110.937 E1.87639
G1 X91.054 Y108.917 E1.98643
G1 X90.737 Y108.494 E2.00397
G1 X89.062 Y106.315 E2.09516
G1 X87.996 Y103.738 E2.18768
G1 X87.802 Y103.283 E2.20409
G1 X87.371 Y100.000 E2.31394
G1 X87.735 Y97.224 E2.40683
G1 X87.806 Y96.719 E2.42375
G1 X88.873 Y94.142 E2.51629
G1 X89.072 Y93.673 E2.53319
G1 X90.760 Y91.474 E2.62516
G0 F5100 X91.065 Y91.732
G1 F2400 X91.347 Y91.360 E2.64065
G1 X93.886 Y89.411 E2.74684
G1 X96.835 Y88.189 E2.85275
G1 X100.000 Y87.774 E2.95865
G1 X103.164 Y88.189 E3.06452
G1 X106.097 Y89.404 E3.16985
G1 X106.462 Y89.678 E3.18499
G1 X108.645 Y91.355 E3.27632
G1 X110.588 Y93.886 E3.38218
G1 X111.635 Y96.413 E3.47293
G1 X111.808 Y96.821 E3.48763
G1 X112.164 Y99.524 E3.57809
G1 X112.228 Y99.989 E3.59366
G1 X111.810 Y103.164 E3.69991
G1 X110.595 Y106.097 E3.80523
G1 X110.321 Y106.462 E3.82037
G1 X108.633 Y108.659 E3.91229
G1 X108.284 Y108.921 E3.92677
G1 X106.114 Y110.588 E4.01756
G1 X103.164 Y111.810 E4.12349
G1 X100.000 Y112.227 E4.22937
G1 X96.835 Y111.810 E4.33529
G1 X93.886 Y110.588 E4.44119
G1 X91.340 Y108.633 E4.54769
G1 X91.078 Y108.284 E4.56217
G1 X89.411 Y106.114 E4.65295
G1 X88.364 Y103.586 E4.74373
G1 X88.191 Y103.177 E4.75847
G1 X87.774 Y100.000 E4.86478
G1 X88.131 Y97.278 E4.95586
G1 X88.194 Y96.824 E4.97106
G1 X89.241 Y94.296 E5.06184
G1 X89.419 Y93.875 E5.07701
G1 X91.065 Y91.732 E5.16666
G1 F2400 E1.16666
G0 F5100 X94.349 Y94.346
;TYPE:WALL-INNER
G1 F2400 E5.16666
G1 X96.003 Y93.076 E5.23584
G1 X97.929 Y92.278 E5.30501
G1 X100.000 Y92.006 E5.37431
G1 X102.072 Y92.278 E5.44364
G1 X103.997 Y93.076 E5.51278
G1 X105.652 Y94.347 E5.58201
G1 X106.924 Y96.004 E5.65131
G1 X107.722 Y97.931 E5.72051
G1 X107.994 Y100.003 E5.78984
G1 X107.722 Y102.068 E5.85895
G1 X106.923 Y103.997 E5.92822
G1 X105.653 Y105.651 E5.99740
G1 X103.996 Y106.924 E6.06673
G1 X102.068 Y107.722 E6.13595
G1 X100.000 Y107.995 E6.20516
G1 X97.932 Y107.722 E6.27436
G1 X96.003 Y106.923 E6.34364
G1 X94.348 Y105.653 E6.41285
G1 X93.075 Y103.996 E6.48217
G1 X92.278 Y102.069 E6.55136
G1 X92.006 Y100.000 E6.62059
G1 X92.278 Y97.928 E6.68992
G1 X93.074 Y96.005 E6.75897
G1 X94.349 Y94.346 E6.82839
G0 F5100 X96.460 Y96.460
G1 F2400 X95.795 Y97.325 E6.86459
G1 X95.663 Y97.501 E6.87189
G1 X95.251 Y98.497 E6.90765
G1 X95.165 Y98.702 E6.91502
G1 X95.024 Y99.777 E6.95099
G1 X94.994 Y99.996 E6.95833
G1 X95.136 Y101.081 E6.99463
G1 X95.166 Y101.298 E7.00190
G1 X95.581 Y102.302 E7.03794
G1 X95.666 Y102.505 E7.04524
G1 X96.460 Y103.539 E7.08850
G1 X97.497 Y104.335 E7.13187
G1 X98.704 Y104.834 E7.17520
G1 X100.000 Y105.006 E7.21857
G1 X101.295 Y104.834 E7.26191
G1 X102.503 Y104.335 E7.30528
G1 X103.539 Y103.539 E7.34862
G1 X104.335 Y102.503 E7.39197
G1 X104.751 Y101.496 E7.42812
G1 X104.834 Y101.298 E7.43524
G1 X104.975 Y100.223 E7.47121
G1 X105.006 Y100.003 E7.47858
G1 X104.863 Y98.918 E7.51489
G1 X104.833 Y98.701 E7.52216
G1 X104.418 Y97.698 E7.55817
G1 X104.333 Y97.495 E7.56547
G1 X103.672 Y96.634 E7.60148
G1 X103.542 Y96.462 E7.60864
G1 X102.503 Y95.664 E7.65210
G1 X101.295 Y95.165 E7.69546
G1 X100.000 Y94.994 E7.73880
G1 X98.704 Y95.165 E7.78217
G1 X97.497 Y95.664 E7.82550
G1 X96.460 Y96.460 E7.86887
G0 F5100 X96.745 Y96.744
G1 F2400 X96.112 Y97.567 E7.90332
G1 X96.012 Y97.700 E7.90884
G1 X95.617 Y98.655 E7.94313
G1 X95.553 Y98.807 E7.94860
G1 X95.420 Y99.831 E7.98286
G1 X95.397 Y99.998 E7.98845
G1 X95.531 Y101.028 E8.02291
G1 X95.554 Y101.193 E8.02844
G1 X95.949 Y102.149 E8.06276
G1 X96.014 Y102.303 E8.06830
G1 X96.745 Y103.255 E8.10812
G1 X97.699 Y103.986 E8.14800
G1 X98.808 Y104.446 E8.18783
G1 X100.000 Y104.603 E8.22772
G1 X101.191 Y104.446 E8.26758
G1 X102.302 Y103.986 E8.30747
G1 X103.254 Y103.254 E8.34731
G1 X103.987 Y102.301 E8.38720
G1 X104.382 Y101.344 E8.42155
G1 X104.445 Y101.193 E8.42698
G1 X104.580 Y100.169 E8.46124
G1 X104.603 Y100.002 E8.46684
G1 X104.468 Y98.971 E8.50133
G1 X104.445 Y98.806 E8.50686
G1 X104.050 Y97.851 E8.54115
G1 X103.985 Y97.697 E8.54669
G1 X103.358 Y96.880 E8.58086
G1 X103.256 Y96.746 E8.58645
G1 X102.302 Y96.013 E8.62636
G1 X101.191 Y95.553 E8.66626
G1 X100.000 Y95.397 E8.70611
G1 X98.808 Y95.553 E8.74599
G1 X97.699 Y96.013 E8.78583
G1 X96.745 Y96.744 E8.82570
G0 F5100 X94.063 Y94.061
G1 F2400 X95.802 Y92.727 E8.89842
G1 X97.824 Y91.889 E8.97103
G1 X100.000 Y91.603 E9.04385
G1 X102.171 Y91.889 E9.11650
G1 X104.203 Y92.730 E9.18946
G1 X105.937 Y94.062 E9.26200
G1 X107.272 Y95.801 E9.33474
G1 X108.111 Y97.828 E9.40752
G1 X108.396 Y100.002 E9.48026
G1 X108.111 Y102.171 E9.55284
G1 X107.269 Y104.203 E9.62582
G1 X105.939 Y105.934 E9.69824
G1 X104.201 Y107.270 E9.77097
G1 X102.171 Y108.111 E9.84387
G1 X100.000 Y108.397 E9.91652
G1 X97.824 Y108.110 E9.98934
G1 X95.802 Y107.272 E10.06195
G1 X94.064 Y105.939 E10.13462
G1 X92.729 Y104.201 E10.20733
G1 X91.888 Y102.171 E10.28023
G1 X91.603 Y99.998 E10.35294
G1 X91.889 Y97.825 E10.42566
G1 X92.726 Y95.803 E10.49826
G1 X94.063 Y94.061 E10.57112
G0 F5100 X93.772 Y93.786
;TYPE:WALL-OUTER
G1 F2400 X95.600 Y92.379 E10.64765
G1 X97.723 Y91.499 E10.72389
G1 X100.000 Y91.200 E10.80009
G1 X102.276 Y91.499 E10.87625
G1 X104.402 Y92.380 E10.95260
G1 X106.221 Y93.778 E11.02871
G1 X107.620 Y95.600 E11.10492
G1 X108.495 Y97.714 E11.18083
G1 X108.500 Y97.725 E11.18123
G1 X108.798 Y99.991 E11.25706
G1 X108.799 Y100.001 E11.25739
G1 X108.500 Y102.276 E11.33352
G1 X107.619 Y104.402 E11.40987
G1 X106.222 Y106.220 E11.48593
G1 X104.400 Y107.620 E11.56217
G1 X102.276 Y108.500 E11.63844
G1 X100.000 Y108.800 E11.71461
G1 X97.723 Y108.500 E11.79080
G1 X95.600 Y107.620 E11.86705
G1 X93.779 Y106.222 E11.94322
G1 X92.379 Y104.400 E12.01945
G1 X91.504 Y102.285 E12.09539
G1 X91.499 Y102.274 E12.09579
G1 X91.200 Y100.000 E12.17188
G1 X91.498 Y97.733 E12.24774
G1 X91.499 Y97.723 E12.24807
G1 X92.374 Y95.611 E12.32392
G1 X93.772 Y93.786 E12.40019
G0 F5100 X93.993 Y93.987
G0 X96.793 Y96.846
G0 X97.029 Y97.029
G1 F2400 X96.430 Y97.809 E12.43282
G1 X96.361 Y97.900 E12.43661
G1 X95.986 Y98.807 E12.46917
G1 X95.942 Y98.912 E12.47295
G1 X95.815 Y99.886 E12.50553
G1 X95.799 Y99.999 E12.50932
G1 X95.927 Y100.975 E12.54198
G1 X95.942 Y101.087 E12.54573
G1 X96.317 Y101.995 E12.57832
G1 X96.361 Y102.101 E12.58213
G1 X97.029 Y102.970 E12.61849
G1 X97.900 Y103.638 E12.65491
G1 X98.912 Y104.057 E12.69125
G1 X100.000 Y104.201 E12.72766
G1 X101.087 Y104.057 E12.76404
G1 X102.100 Y103.638 E12.80041
G1 X102.970 Y102.970 E12.83680
G1 X103.638 Y102.100 E12.87319
G1 X104.013 Y101.192 E12.90578
G1 X104.057 Y101.087 E12.90956
G1 X104.185 Y100.114 E12.94212
G1 X104.201 Y100.001 E12.94591
G1 X104.072 Y99.024 E12.97860
G1 X104.057 Y98.912 E12.98235
G1 X103.682 Y98.004 E13.01494
G1 X103.638 Y97.899 E13.01872
G1 X103.039 Y97.120 E13.05132
G1 X102.970 Y97.030 E13.05508
G1 X102.100 Y96.361 E13.09150
G1 X101.087 Y95.942 E13.12786
G1 X100.000 Y95.799 E13.16424
G1 X98.912 Y95.942 E13.20065
G1 X97.900 Y96.361 E13.23699
G1 X97.029 Y97.029 E13.27340
G0 F5100 X96.252 Y96.534
;TYPE:SKIN
G1 F2400 X94.310 Y94.593 E13.36450
G0 F5100 X94.592 Y94.311
G1 F2400 X96.533 Y96.252 E13.45557
G0 F5100 X96.852 Y96.006
G1 F2400 X94.911 Y94.065 E13.54664
G0 F5100 X95.231 Y93.821
G1 F2400 X97.172 Y95.762 E13.63771
G0 F5100 X97.505 Y95.530
G1 F2400 X95.549 Y93.575 E13.72946
G0 F5100 X95.868 Y93.330
G1 F2400 X97.903 Y95.365 E13.82494
G0 F5100 X98.302 Y95.199
G1 F2400 X96.218 Y93.116 E13.92270
G0 F5100 X96.618 Y92.951
G1 F2400 X98.709 Y95.042 E14.02080
G0 F5100 X99.207 Y94.976
G1 F2400 X97.017 Y92.785 E14.12358
G0 F5100 X97.415 Y92.620
G1 F2400 X99.705 Y94.909 E14.23100
G0 F5100 X100.266 Y94.906
G1 F2400 X97.814 Y92.454 E14.34605
G0 F5100 X98.277 Y92.353
G1 F2400 X100.916 Y94.992 E14.46987
G0 F5100 X101.683 Y95.194
G1 F2400 X98.775 Y92.287 E14.60629
G0 F5100 X99.274 Y92.221
G1 F2400 X102.778 Y95.725 E14.77069
G0 F5100 X104.271 Y97.218
G1 F2400 X107.778 Y100.725 E14.93524
G0 F5100 X107.844 Y100.227
G1 F2400 X99.773 Y92.156 E15.31392
G0 F5100 X96.008 Y96.855
G1 F2400 X94.065 Y94.912 E15.40509
G0 F5100 X93.819 Y95.231
G1 F2400 X95.763 Y97.174 E15.49628
G0 F5100 X95.531 Y97.507
G1 F2400 X93.574 Y95.549 E15.58812
G0 F5100 X93.328 Y95.868
G1 F2400 X95.366 Y97.906 E15.68374
G0 F5100 X95.200 Y98.304
G1 F2400 X93.114 Y96.218 E15.78162
G0 F5100 X92.949 Y96.617
G1 F2400 X95.042 Y98.710 E15.87982
G0 F5100 X94.976 Y99.209
G1 F2400 X92.783 Y97.016 E15.98271
G0 F5100 X92.618 Y97.415
G1 F2400 X94.910 Y99.707 E16.09025
G0 F5100 X94.909 Y100.270
G1 F2400 X92.453 Y97.814 E16.20549
G0 F5100 X92.351 Y98.277
G1 F2400 X94.994 Y100.920 E16.32949
G0 F5100 X95.197 Y101.687
G1 F2400 X92.286 Y98.776 E16.46608
G0 F5100 X92.220 Y99.274
G1 F2400 X95.732 Y102.786 E16.63086
G0 F5100 X97.214 Y104.268
G1 F2400 X100.723 Y107.777 E16.79550
G0 F5100 X100.225 Y107.843
G1 F2400 X92.155 Y99.773 E17.17414
G0 F5100 X92.172 Y100.355
G1 F2400 X99.644 Y107.826 E17.52469
G0 F5100 X98.993 Y107.740
G1 F2400 X92.258 Y101.005 E17.84070
G0 F5100 X92.343 Y101.655
G1 F2400 X98.343 Y107.654 E18.12219
G0 F5100 X97.563 Y107.438
G1 F2400 X92.558 Y102.434 E18.35700
G0 F5100 X92.956 Y103.396
G1 F2400 X96.599 Y107.038 E18.52790
G0 F5100 X94.987 Y105.991
G1 F2400 X94.006 Y105.010 E18.57393
G0 F5100 X98.311 Y104.801
G1 F2400 X101.222 Y107.712 E18.71051
G0 F5100 X101.720 Y107.646
G1 F2400 X99.080 Y105.006 E18.83438
G0 F5100 X99.731 Y105.092
G1 F2400 X102.182 Y107.543 E18.94938
G0 F5100 X102.582 Y107.379
G1 F2400 X100.291 Y105.088 E19.05687
G0 F5100 X100.789 Y105.022
G1 F2400 X102.980 Y107.213 E19.15967
G0 F5100 X103.379 Y107.048
G1 F2400 X101.288 Y104.956 E19.25780
G0 F5100 X101.694 Y104.798
G1 F2400 X103.778 Y106.882 E19.35558
G0 F5100 X104.129 Y106.669
G1 F2400 X102.093 Y104.633 E19.45111
G0 F5100 X102.492 Y104.467
G1 F2400 X104.448 Y106.423 E19.54288
G0 F5100 X104.767 Y106.178
G1 F2400 X102.826 Y104.237 E19.63395
G0 F5100 X103.145 Y103.992
G1 F2400 X105.085 Y105.933 E19.72500
G0 F5100 X105.404 Y105.687
G1 F2400 X103.464 Y103.747 E19.81602
G0 F5100 X103.745 Y103.464
G1 F2400 X105.688 Y105.406 E19.90716
G0 F5100 X105.933 Y105.088
G1 F2400 X103.991 Y103.145 E19.99830
G0 F5100 X104.236 Y102.826
G1 F2400 X106.178 Y104.768 E20.08942
G0 F5100 X106.423 Y104.449
G1 F2400 X104.467 Y102.493 E20.18120
G0 F5100 X104.632 Y102.094
G1 F2400 X106.669 Y104.130 E20.27675
G0 F5100 X106.883 Y103.780
G1 F2400 X104.798 Y101.695 E20.37457
G0 F5100 X104.955 Y101.288
G1 F2400 X107.048 Y103.381 E20.47278
G0 F5100 X107.213 Y102.982
G1 F2400 X105.021 Y100.790 E20.57562
G0 F5100 X105.088 Y100.292
G1 F2400 X107.379 Y102.583 E20.68312
G0 F5100 X107.544 Y102.184
G1 F2400 X105.090 Y99.730 E20.79826
G0 F5100 X105.004 Y99.080
G1 F2400 X107.647 Y101.722 E20.92224
G0 F5100 X107.712 Y101.224
G1 F2400 X104.802 Y98.314 E21.05878
G0 F5100 X107.441 Y97.567
G1 F2400 X102.430 Y92.556 E21.29389
G0 F5100 X101.653 Y92.343
G1 F2400 X107.656 Y98.346 E21.57555
G0 F5100 X107.741 Y98.995
G1 F2400 X101.003 Y92.258 E21.89166
G0 F5100 X100.354 Y92.172
G1 F2400 X107.826 Y99.645 E22.24227
G0 F5100 X107.041 Y96.603
G1 F2400 X103.395 Y92.956 E22.41336
G0 F5100 X105.004 Y94.002
G1 F2400 X105.995 Y94.992 E22.45983
;LAYER:1
M106 S84
G0 F5100 X105.652 Y94.347 Z0.350
;TYPE:WALL-INNER
G1 F2700 X106.923 Y96.003 E22.51178
G1 X107.722 Y97.933 E22.56375
G1 X107.994 Y100.003 E22.61570
G1 X107.722 Y102.068 E22.66753
G1 X106.924 Y103.996 E22.71945
G1 X105.652 Y105.652 E22.77141
G1 X103.996 Y106.924 E22.82337
G1 X102.068 Y107.722 E22.87529
G1 X100.000 Y107.995 E22.92719
G1 X97.932 Y107.722 E22.97910
G1 X96.003 Y106.923 E23.03105
G1 X94.347 Y105.652 E23.08299
G1 X93.075 Y103.996 E23.13495
G1 X92.278 Y102.070 E23.18682
G1 X92.006 Y99.999 E23.23879
G1 X92.277 Y97.932 E23.29067
G1 X93.076 Y96.003 E23.34262
G1 X94.346 Y94.348 E23.39453
G1 X96.003 Y93.076 E23.44651
G1 X97.929 Y92.278 E23.49838
G1 X100.000 Y92.006 E23.55036
G1 X102.072 Y92.278 E23.60235
G1 X103.996 Y93.075 E23.65417
G1 X105.652 Y94.347 E23.70613
G0 F5100 X103.736 Y96.716
G1 F2700 X103.539 Y96.460 E23.71417
G1 X102.503 Y95.664 E23.74668
G1 X101.295 Y95.165 E23.77920
G1 X100.000 Y94.994 E23.81170
G1 X98.704 Y95.165 E23.84423
G1 X97.497 Y95.664 E23.87673
G1 X96.460 Y96.460 E23.90926
G1 X95.862 Y97.240 E23.93372
G1 X95.664 Y97.497 E23.94179
G1 X95.290 Y98.402 E23.96615
G1 X95.165 Y98.702 E23.97424
G1 X94.994 Y100.000 E24.00682
G1 X95.165 Y101.294 E24.03930
G1 X95.540 Y102.205 E24.06381
G1 X95.665 Y102.504 E24.07187
G1 X96.264 Y103.284 E24.09634
G1 X96.461 Y103.540 E24.10438
G1 X97.497 Y104.335 E24.13688
G1 X98.704 Y104.834 E24.16938
G1 X100.000 Y105.006 E24.20191
G1 X101.295 Y104.834 E24.23441
G1 X102.503 Y104.335 E24.26693
G1 X103.539 Y103.539 E24.29944
G1 X104.137 Y102.760 E24.32388
G1 X104.335 Y102.503 E24.33195
G1 X104.709 Y101.597 E24.35634
G1 X104.834 Y101.297 E24.36443
G1 X104.962 Y100.325 E24.38882
G1 X105.006 Y100.003 E24.39691
G1 X104.877 Y99.022 E24.42153
G1 X104.833 Y98.702 E24.42957
G1 X104.459 Y97.794 E24.45400
G1 X104.334 Y97.496 E24.46204
G1 X103.736 Y96.716 E24.48650
G0 F5100 X103.419 Y96.959
G1 F2700 X103.254 Y96.744 E24.49324
G1 X102.302 Y96.013 E24.52311
G1 X101.191 Y95.553 E24.55303
G1 X100.000 Y95.397 E24.58292
G1 X98.808 Y95.553 E24.61283
G1 X97.699 Y96.013 E24.64271
G1 X96.744 Y96.745 E24.67265
G1 X96.178 Y97.483 E24.69579
G1 X96.013 Y97.698 E24.70253
G1 X95.658 Y98.556 E24.72564
G1 X95.553 Y98.807 E24.73241
G1 X95.397 Y100.000 E24.76234
G1 X95.553 Y101.191 E24.79223
G1 X95.909 Y102.052 E24.81542
G1 X96.013 Y102.302 E24.82215
G1 X96.745 Y103.255 E24.85206
G1 X97.699 Y103.986 E24.88196
G1 X98.808 Y104.446 E24.91184
G1 X100.000 Y104.603 E24.94175
G1 X101.191 Y104.446 E24.97164
G1 X102.302 Y103.986 E25.00156
G1 X103.255 Y103.254 E25.03147
G1 X103.987 Y102.301 E25.06137
G1 X104.341 Y101.443 E25.08446
G1 X104.446 Y101.192 E25.09123
G1 X104.567 Y100.268 E25.11442
G1 X104.603 Y100.002 E25.12110
G1 X104.482 Y99.075 E25.14436
G1 X104.445 Y98.807 E25.15109
G1 X104.090 Y97.948 E25.17422
G1 X103.986 Y97.698 E25.18096
G1 X103.419 Y96.959 E25.20413
G0 F5100 X105.937 Y94.062
G1 F2700 X107.272 Y95.801 E25.25869
G1 X108.110 Y97.825 E25.31319
G1 X108.396 Y100.002 E25.36783
G1 X108.111 Y102.171 E25.42226
G1 X107.270 Y104.201 E25.47694
G1 X105.937 Y105.937 E25.53140
G1 X104.201 Y107.270 E25.58586
G1 X102.171 Y108.111 E25.64054
G1 X100.000 Y108.397 E25.69503
G1 X97.824 Y108.110 E25.74964
G1 X95.802 Y107.272 E25.80410
G1 X94.062 Y105.937 E25.85867
G1 X92.729 Y104.201 E25.91313
G1 X91.889 Y102.174 E25.96773
G1 X91.603 Y100.000 E26.02229
G1 X91.887 Y97.832 E26.07670
G1 X92.727 Y95.801 E26.13139
G1 X94.061 Y94.064 E26.18588
