;Generated with Cura_SteamEngine 15.01
; Default start code
M104 T0 S210
G28 ; Home extruder
G1 Z15 F100
M107 ; Turn off fan
G90 ; Absolute positioning
M82 ; Extruder in absolute mode
M140 S50
; Activate all used extruder
G92 E0 ; Reset extruder position
; Wait for all used extruders to reach temperature
M109 T0 S210
;Layer count: 100
;LAYER:0
M107
G0 F4200 X34.444 Y21.565 Z0.200
;TYPE:SKIRT
G1 F2400 X62.645 Y21.566 E0.66830
G1 X66.049 Y21.579 E0.74897
G1 X66.050 Y64.247 E1.76011
G1 X66.049 Y66.710 E1.81848
G1 X66.049 Y70.104 E1.89891
G1 X37.839 Y70.115 E2.56743
G1 X34.415 Y70.128 E2.64857
G1 X34.415 Y64.217 E2.78865
G1 X34.434 Y25.481 E3.70661
G1 X34.444 Y21.565 E3.79941
G1 F2400 E-0.20059
G0 F4200 X38.334 Y25.488
;TYPE:WALL-INNER
G1 F2400 E3.79941
G1 X38.334 Y25.465 E3.79995
G1 X62.149 Y25.466 E4.36432
G1 X62.149 Y66.205 E5.32974
G1 X38.315 Y66.215 E5.89456
G1 X38.334 Y25.488 E6.85970
G0 F4200 X38.034 Y25.487
G1 F2400 X38.035 Y25.165 E6.86733
G1 X62.449 Y25.166 E7.44589
G1 X62.449 Y66.505 E8.42553
G1 X38.015 Y66.515 E9.00457
G1 X38.034 Y25.487 E9.97684
G0 F4200 X37.736 Y24.865
;TYPE:WALL-OUTER
G1 F2400 X62.749 Y24.867 E10.56960
G1 X62.749 Y66.805 E11.56344
G1 X37.715 Y66.816 E12.15669
G1 X37.736 Y24.865 E13.15084
G0 F4200 X38.495 Y25.555
;TYPE:SKIN
G1 F2400 X62.058 Y49.118 E13.94052
G0 F4200 X62.058 Y49.542
G1 F2400 X38.422 Y25.906 E14.73266
G0 F4200 X38.422 Y26.330
G1 F2400 X62.058 Y49.966 E15.52479
G0 F4200 X62.058 Y50.391
G1 F2400 X38.422 Y26.754 E16.31694
G0 F4200 X38.421 Y27.178
G1 F2400 X62.058 Y50.815 E17.10910
G0 F4200 X62.058 Y51.239
G1 F2400 X38.421 Y27.602 E17.90127
G0 F4200 X38.421 Y28.026
G1 F2400 X62.058 Y51.664 E18.69345
G0 F4200 X62.058 Y52.088
G1 F2400 X38.421 Y28.451 E19.48562
G0 F4200 X38.420 Y28.874
G1 F2400 X62.058 Y52.512 E20.27782
G0 F4200 X62.058 Y52.936
G1 F2400 X38.420 Y29.298 E21.07002
G0 F4200 X38.420 Y29.723
G1 F2400 X62.058 Y53.361 E21.86222
G0 F4200 X62.058 Y53.785
G1 F2400 X38.420 Y30.147 E22.65442
G0 F4200 X38.419 Y30.571
G1 F2400 X62.058 Y54.209 E23.44663
G0 F4200 X62.058 Y54.633
G1 F2400 X38.419 Y30.995 E24.23885
G0 F4200 X38.419 Y31.419
G1 F2400 X62.058 Y55.058 E25.03108
G0 F4200 X62.058 Y55.482
G1 F2400 X38.419 Y31.843 E25.82332
G0 F4200 X38.419 Y32.267
G1 F2400 X62.058 Y55.906 E26.61555
G0 F4200 X62.058 Y56.330
G1 F2400 X38.419 Y32.691 E27.40778
G0 F4200 X38.419 Y33.115
G1 F2400 X62.058 Y56.755 E28.20003
G0 F4200 X62.058 Y57.179
G1 F2400 X38.419 Y33.540 E28.99227
G0 F4200 X38.418 Y33.963
G1 F2400 X62.058 Y57.603 E29.78453
G0 F4200 X62.058 Y58.028
G1 F2400 X38.418 Y34.388 E30.57680
G0 F4200 X38.418 Y34.812
G1 F2400 X62.058 Y58.452 E31.36906
G0 F4200 X62.058 Y58.876
G1 F2400 X38.418 Y35.236 E32.16133
G0 F4200 X38.417 Y35.660
G1 F2400 X62.058 Y59.300 E32.95361
G0 F4200 X62.058 Y59.725
G1 F2400 X38.417 Y36.084 E33.74592
G0 F4200 X38.417 Y36.508
G1 F2400 X62.058 Y60.149 E34.53822
G0 F4200 X62.058 Y60.573
G1 F2400 X38.417 Y36.932 E35.33052
G0 F4200 X38.417 Y37.356
G1 F2400 X62.058 Y60.997 E36.12282
G0 F4200 X62.058 Y61.422
G1 F2400 X38.417 Y37.780 E36.91513
G0 F4200 X38.417 Y38.204
G1 F2400 X62.058 Y61.846 E37.70745
G0 F4200 X62.058 Y62.270
G1 F2400 X38.416 Y38.628 E38.49978
G0 F4200 X38.416 Y39.052
G1 F2400 X62.058 Y62.694 E39.29212
G0 F4200 X62.058 Y63.119
G1 F2400 X38.416 Y39.477 E40.08445
G0 F4200 X38.416 Y39.901
G1 F2400 X62.058 Y63.543 E40.87678
G0 F4200 X62.058 Y63.967
G1 F2400 X38.415 Y40.324 E41.66915
G0 F4200 X38.415 Y40.749
G1 F2400 X62.058 Y64.391 E42.46150
G0 F4200 X62.058 Y64.816
G1 F2400 X38.415 Y41.173 E43.25387
G0 F4200 X38.415 Y41.597
G1 F2400 X62.058 Y65.240 E44.04624
G0 F4200 X62.058 Y65.664
G1 F2400 X38.414 Y42.021 E44.83862
G0 F4200 X38.414 Y42.445
G1 F2400 X62.058 Y66.089 E45.63102
G0 F4200 X61.659 Y66.114
G1 F2400 X38.414 Y42.869 E46.41005
G0 F4200 X38.414 Y43.294
G1 F2400 X61.235 Y66.114 E47.17485
G0 F4200 X60.811 Y66.114
G1 F2400 X38.414 Y43.717 E47.92546
G0 F4200 X38.414 Y44.141
G1 F2400 X60.386 Y66.114 E48.66184
G0 F4200 X59.963 Y66.115
G1 F2400 X38.414 Y44.566 E49.38403
G0 F4200 X38.414 Y44.990
G1 F2400 X59.539 Y66.115 E50.09201
G0 F4200 X59.114 Y66.115
G1 F2400 X38.413 Y45.413 E50.78580
G0 F4200 X38.413 Y45.838
G1 F2400 X58.690 Y66.115 E51.46536
G0 F4200 X58.267 Y66.115
G1 F2400 X38.413 Y46.262 E52.13072
G0 F4200 X38.412 Y46.686
G1 F2400 X57.842 Y66.115 E52.78188
G0 F4200 X57.418 Y66.115
G1 F2400 X38.412 Y47.110 E53.41883
G0 F4200 X38.412 Y47.534
G1 F2400 X56.994 Y66.115 E54.04156
G0 F4200 X56.570 Y66.116
G1 F2400 X38.412 Y47.958 E54.65011
G0 F4200 X38.412 Y48.382
G1 F2400 X56.146 Y66.116 E55.24444
G0 F4200 X55.722 Y66.116
G1 F2400 X38.412 Y48.806 E55.82457
G0 F4200 X38.412 Y49.230
G1 F2400 X55.297 Y66.116 E56.39046
G0 F4200 X54.873 Y66.116
G1 F2400 X38.412 Y49.655 E56.94213
G0 F4200 X38.411 Y50.078
G1 F2400 X54.450 Y66.117 E57.47966
G0 F4200 X54.025 Y66.117
G1 F2400 X38.411 Y50.502 E58.00296
G0 F4200 X38.411 Y50.927
G1 F2400 X53.601 Y66.117 E58.51204
G0 F4200 X53.177 Y66.117
G1 F2400 X38.411 Y51.351 E59.00690
G0 F4200 X38.410 Y51.775
G1 F2400 X52.753 Y66.118 E59.48759
G0 F4200 X52.329 Y66.118
G1 F2400 X38.410 Y52.199 E59.95407
G0 F4200 X38.410 Y52.623
G1 F2400 X51.905 Y66.118 E60.40634
G0 F4200 X51.480 Y66.118
G1 F2400 X38.410 Y53.047 E60.84438
G0 F4200 X38.410 Y53.471
G1 F2400 X51.057 Y66.118 E61.26823
G0 F4200 X50.633 Y66.118
G1 F2400 X38.410 Y53.895 E61.67787
G0 F4200 X38.410 Y54.319
G1 F2400 X50.208 Y66.118 E62.07328
G0 F4200 X49.784 Y66.118
G1 F2400 X38.410 Y54.744 E62.45447
G0 F4200 X38.409 Y55.167
G1 F2400 X49.360 Y66.118 E62.82148
G0 F4200 X48.936 Y66.119
G1 F2400 X38.409 Y55.592 E63.17428
G0 F4200 X38.409 Y56.016
G1 F2400 X48.512 Y66.119 E63.51287
G0 F4200 X48.088 Y66.119
G1 F2400 X38.408 Y56.439 E63.83728
G0 F4200 X38.408 Y56.864
G1 F2400 X47.663 Y66.119 E64.14745
G0 F4200 X47.240 Y66.120
G1 F2400 X38.408 Y57.288 E64.44345
G0 F4200 X38.408 Y57.712
G1 F2400 X46.816 Y66.120 E64.72523
G0 F4200 X46.391 Y66.120
G1 F2400 X38.407 Y58.136 E64.99281
G0 F4200 X38.407 Y58.560
G1 F2400 X45.967 Y66.120 E65.24617
G0 F4200 X45.544 Y66.120
G1 F2400 X38.407 Y58.984 E65.48534
G0 F4200 X38.407 Y59.408
G1 F2400 X45.119 Y66.120 E65.71029
G0 F4200 X44.695 Y66.120
G1 F2400 X38.407 Y59.832 E65.92102
G0 F4200 X38.407 Y60.256
G1 F2400 X44.271 Y66.120 E66.11755
G0 F4200 X43.847 Y66.121
G1 F2400 X38.407 Y60.681 E66.29986
G0 F4200 X38.407 Y61.105
G1 F2400 X43.423 Y66.121 E66.46797
G0 F4200 X42.999 Y66.121
G1 F2400 X38.406 Y61.528 E66.62190
G0 F4200 X38.406 Y61.953
G1 F2400 X42.574 Y66.121 E66.76158
G0 F4200 X42.150 Y66.121
G1 F2400 X38.406 Y62.377 E66.88706
G0 F4200 X38.406 Y62.801
G1 F2400 X41.727 Y66.122 E66.99836
G0 F4200 X41.302 Y66.122
G1 F2400 X38.405 Y63.225 E67.09545
G0 F4200 X38.405 Y63.649
G1 F2400 X40.878 Y66.122 E67.17833
G0 F4200 X40.454 Y66.122
G1 F2400 X38.405 Y64.073 E67.24700
G0 F4200 X38.405 Y64.498
G1 F2400 X40.030 Y66.122 E67.30144
G0 F4200 X39.606 Y66.122
G1 F2400 X38.405 Y64.921 E67.34169
G0 F4200 X38.405 Y65.345
G1 F2400 X39.182 Y66.122 E67.36773
G0 F4200 X38.757 Y66.122
G1 F2400 X38.405 Y65.770 E67.37953
G0 F4200 X62.058 Y48.694
G1 F2400 X38.919 Y25.555 E68.15500
G0 F4200 X39.344 Y25.555
G1 F2400 X62.058 Y48.269 E68.91623
G0 F4200 X62.058 Y47.845
G1 F2400 X39.768 Y25.555 E69.66326
G0 F4200 X40.192 Y25.555
G1 F2400 X62.058 Y47.421 E70.39607
G0 F4200 X62.058 Y46.997
G1 F2400 X40.616 Y25.555 E71.11467
G0 F4200 X41.041 Y25.555
G1 F2400 X62.058 Y46.572 E71.81903
G0 F4200 X62.058 Y46.148
G1 F2400 X41.465 Y25.555 E72.50918
G0 F4200 X41.889 Y25.555
G1 F2400 X62.058 Y45.724 E73.18512
G0 F4200 X62.058 Y45.300
G1 F2400 X42.313 Y25.555 E73.84685
G0 F4200 X42.738 Y25.555
G1 F2400 X62.058 Y44.875 E74.49434
G0 F4200 X62.058 Y44.451
G1 F2400 X43.162 Y25.555 E75.12762
G0 F4200 X43.586 Y25.555
G1 F2400 X62.058 Y44.027 E75.74669
G0 F4200 X62.058 Y43.603
G1 F2400 X44.011 Y25.555 E76.35153
G0 F4200 X44.435 Y25.555
G1 F2400 X62.058 Y43.178 E76.94214
G0 F4200 X62.058 Y42.754
G1 F2400 X44.859 Y25.555 E77.51854
G0 F4200 X45.283 Y25.555
G1 F2400 X62.058 Y42.330 E78.08074
G0 F4200 X62.058 Y41.905
G1 F2400 X45.708 Y25.555 E78.62869
G0 F4200 X46.132 Y25.555
G1 F2400 X62.058 Y41.481 E79.16243
G0 F4200 X62.058 Y41.057
G1 F2400 X46.556 Y25.555 E79.68196
G0 F4200 X46.980 Y25.555
G1 F2400 X62.058 Y40.633 E80.18728
G0 F4200 X62.058 Y40.208
G1 F2400 X47.405 Y25.555 E80.67836
G0 F4200 X47.829 Y25.555
G1 F2400 X62.058 Y39.784 E81.15523
G0 F4200 X62.058 Y39.360
G1 F2400 X48.253 Y25.555 E81.61789
G0 F4200 X48.677 Y25.555
G1 F2400 X62.058 Y38.936 E82.06634
G0 F4200 X62.058 Y38.511
G1 F2400 X49.102 Y25.555 E82.50054
G0 F4200 X49.526 Y25.555
G1 F2400 X62.058 Y38.087 E82.92054
G0 F4200 X62.058 Y37.663
G1 F2400 X49.950 Y25.555 E83.32632
G0 F4200 X50.375 Y25.556
G1 F2400 X62.058 Y37.239 E83.71786
G0 F4200 X62.058 Y36.814
G1 F2400 X50.799 Y25.556 E84.09518
G0 F4200 X51.224 Y25.556
G1 F2400 X62.058 Y36.390 E84.45827
G0 F4200 X62.058 Y35.966
G1 F2400 X51.648 Y25.556 E84.80715
G0 F4200 X52.072 Y25.556
G1 F2400 X62.058 Y35.542 E85.14181
G0 F4200 X62.058 Y35.117
G1 F2400 X52.497 Y25.556 E85.46224
G0 F4200 X52.921 Y25.556
G1 F2400 X62.058 Y34.693 E85.76846
G0 F4200 X62.058 Y34.269
G1 F2400 X53.345 Y25.556 E86.06046
G0 F4200 X53.769 Y25.556
G1 F2400 X62.058 Y33.844 E86.33824
G0 F4200 X62.058 Y33.420
G1 F2400 X54.194 Y25.556 E86.60179
G0 F4200 X54.618 Y25.556
G1 F2400 X62.058 Y32.996 E86.85114
G0 F4200 X62.058 Y32.572
G1 F2400 X55.042 Y25.556 E87.08627
G0 F4200 X55.466 Y25.556
G1 F2400 X62.058 Y32.147 E87.30718
G0 F4200 X62.058 Y31.723
G1 F2400 X55.891 Y25.556 E87.51386
G0 F4200 X56.315 Y25.556
G1 F2400 X62.058 Y31.299 E87.70633
G0 F4200 X62.058 Y30.875
G1 F2400 X56.739 Y25.556 E87.88459
G0 F4200 X57.163 Y25.556
G1 F2400 X62.058 Y30.450 E88.04862
G0 F4200 X62.058 Y30.026
G1 F2400 X57.588 Y25.556 E88.19843
G0 F4200 X58.012 Y25.556
G1 F2400 X62.058 Y29.602 E88.33402
G0 F4200 X62.058 Y29.178
G1 F2400 X58.436 Y25.556 E88.45541
G0 F4200 X58.860 Y25.556
G1 F2400 X62.058 Y28.753 E88.56257
G0 F4200 X62.058 Y28.329
G1 F2400 X59.285 Y25.556 E88.65550
G0 F4200 X59.709 Y25.556
G1 F2400 X62.058 Y27.905 E88.73423
G0 F4200 X62.058 Y27.480
G1 F2400 X60.133 Y25.556 E88.79872
G0 F4200 X60.558 Y25.556
G1 F2400 X62.058 Y27.056 E88.84900
G0 F4200 X62.058 Y26.632
G1 F2400 X60.982 Y25.556 E88.88506
G0 F4200 X61.406 Y25.556
G1 F2400 X62.058 Y26.208 E88.90691
G0 F4200 X62.058 Y25.783
G1 F2400 X61.830 Y25.556 E88.91453
;LAYER:1
G0 F4200 X62.149 Y25.466 Z0.350
;TYPE:WALL-INNER
G1 F2700 X62.149 Y66.205 E89.63860
G1 X38.315 Y66.215 E90.06221
G1 X38.333 Y26.411 E90.76966
G1 X38.335 Y25.465 E90.78648
G1 X62.149 Y25.466 E91.20973
G0 F4200 X62.449 Y25.167
G1 F2700 X62.449 Y66.505 E91.94445
G1 X38.015 Y66.516 E92.37872
G1 X38.036 Y25.165 E93.11367
G1 X62.449 Y25.167 E93.54757
G0 F4200 X62.749 Y24.867
;TYPE:WALL-OUTER
G1 F2460 X62.749 Y66.805 E94.29295
G1 X37.715 Y66.816 E94.73789
G1 X37.736 Y24.865 E95.48350
G1 X62.749 Y24.867 E95.92807
G0 F4200 X62.054 Y25.555
;TYPE:SKIN
G1 F2760 X38.413 Y49.196 E96.52229
G0 F4200 X38.413 Y48.772
G1 F2760 X61.630 Y25.555 E97.10586
G0 F4200 X61.206 Y25.555
G1 F2760 X38.413 Y48.348 E97.67877
G0 F4200 X38.414 Y47.923
G1 F2760 X60.782 Y25.555 E98.24100
G0 F4200 X60.357 Y25.555
G1 F2760 X38.414 Y47.499 E98.79256
G0 F4200 X38.414 Y47.074
G1 F2760 X59.933 Y25.555 E99.33345
G0 F4200 X59.509 Y25.555
G1 F2760 X38.414 Y46.650 E99.86368
G0 F4200 X38.414 Y46.225
G1 F2760 X59.085 Y25.555 E100.38324
G0 F4200 X58.660 Y25.555
G1 F2760 X38.414 Y45.801 E100.89213
G0 F4200 X38.414 Y45.377
G1 F2760 X58.236 Y25.555 E101.39036
G0 F4200 X57.812 Y25.555
G1 F2760 X38.415 Y44.952 E101.87791
G0 F4200 X38.415 Y44.527
G1 F2760 X57.388 Y25.555 E102.35479
G0 F4200 X56.963 Y25.555
G1 F2760 X38.415 Y44.103 E102.82100
G0 F4200 X38.415 Y43.679
G1 F2760 X56.539 Y25.555 E103.27656
G0 F4200 X56.115 Y25.555
G1 F2760 X38.416 Y43.254 E103.72143
G0 F4200 X38.416 Y42.830
G1 F2760 X55.691 Y25.555 E104.15564
G0 F4200 X55.266 Y25.555
G1 F2760 X38.416 Y42.405 E104.57917
G0 F4200 X38.417 Y41.980
G1 F2760 X54.842 Y25.555 E104.99202
G0 F4200 X54.418 Y25.555
G1 F2760 X38.417 Y41.556 E105.39421
G0 F4200 X38.417 Y41.132
G1 F2760 X53.993 Y25.555 E105.78573
G0 F4200 X53.569 Y25.555
G1 F2760 X38.417 Y40.708 E106.16659
G0 F4200 X38.417 Y40.283
G1 F2760 X53.145 Y25.555 E106.53679
G0 F4200 X52.721 Y25.555
G1 F2760 X38.417 Y39.858 E106.89631
G0 F4200 X38.417 Y39.434
G1 F2760 X52.296 Y25.555 E107.24517
G0 F4200 X51.872 Y25.555
G1 F2760 X38.418 Y39.009 E107.58334
G0 F4200 X38.418 Y38.585
G1 F2760 X51.448 Y25.555 E107.91085
G0 F4200 X51.024 Y25.555
G1 F2760 X38.418 Y38.161 E108.22771
G0 F4200 X38.418 Y37.736
G1 F2760 X50.599 Y25.555 E108.53388
G0 F4200 X50.176 Y25.554
G1 F2760 X38.419 Y37.311 E108.82940
G0 F4200 X38.419 Y36.887
G1 F2760 X49.752 Y25.554 E109.11426
G0 F4200 X49.327 Y25.554
G1 F2760 X38.419 Y36.463 E109.38845
G0 F4200 X38.419 Y36.038
G1 F2760 X48.903 Y25.554 E109.65196
G0 F4200 X48.479 Y25.554
G1 F2760 X38.419 Y35.614 E109.90483
G0 F4200 X38.419 Y35.189
G1 F2760 X48.054 Y25.554 E110.14701
G0 F4200 X47.630 Y25.554
G1 F2760 X38.419 Y34.765 E110.37853
G0 F4200 X38.420 Y34.340
G1 F2760 X47.206 Y25.554 E110.59937
G0 F4200 X46.782 Y25.554
G1 F2760 X38.420 Y33.916 E110.80955
G0 F4200 X38.420 Y33.492
G1 F2760 X46.357 Y25.554 E111.00906
G0 F4200 X45.933 Y25.554
G1 F2760 X38.420 Y33.067 E111.19790
G0 F4200 X38.421 Y32.642
G1 F2760 X45.509 Y25.554 E111.37606
G0 F4200 X45.085 Y25.554
G1 F2760 X38.421 Y32.218 E111.54356
G0 F4200 X38.421 Y31.794
G1 F2760 X44.660 Y25.554 E111.70040
G0 F4200 X44.236 Y25.554
G1 F2760 X38.422 Y31.369 E111.84655
G0 F4200 X38.422 Y30.945
G1 F2760 X43.812 Y25.554 E111.98204
G0 F4200 X43.388 Y25.554
G1 F2760 X38.422 Y30.520 E112.10686
G0 F4200 X38.422 Y30.096
G1 F2760 X42.963 Y25.554 E112.22101
G0 F4200 X42.539 Y25.554
G1 F2760 X38.422 Y29.671 E112.32449
G0 F4200 X38.422 Y29.247
G1 F2760 X42.115 Y25.554 E112.41732
G0 F4200 X41.691 Y25.554
G1 F2760 X38.422 Y28.823 E112.49949
G0 F4200 X38.423 Y28.398
G1 F2760 X41.266 Y25.554 E112.57096
G0 F4200 X40.842 Y25.554
G1 F2760 X38.423 Y27.973 E112.63176
G0 F4200 X38.423 Y27.549
G1 F2760 X40.418 Y25.554 E112.68191
G0 F4200 X39.993 Y25.554
G1 F2760 X38.423 Y27.125 E112.72138
G0 F4200 X38.424 Y26.700
G1 F2760 X39.569 Y25.554 E112.75017
G0 F4200 X39.145 Y25.554
G1 F2760 X38.424 Y26.276 E112.76831
G0 F4200 X38.424 Y25.851
G1 F2760 X38.721 Y25.554 E112.77577
G0 F4200 X62.058 Y25.976
G1 F2760 X38.412 Y49.621 E113.37011
G0 F4200 X38.412 Y50.046
G1 F2760 X62.058 Y26.400 E113.96446
G0 F4200 X62.058 Y26.824
G1 F2760 X38.412 Y50.470 E114.55881
G0 F4200 X38.412 Y50.894
G1 F2760 X62.058 Y27.249 E115.15315
G0 F4200 X62.058 Y27.673
G1 F2760 X38.412 Y51.319 E115.74750
G0 F4200 X38.412 Y51.743
G1 F2760 X62.058 Y28.097 E116.34185
G0 F4200 X62.058 Y28.521
G1 F2760 X38.412 Y52.168 E116.93622
G0 F4200 X38.412 Y52.592
G1 F2760 X62.058 Y28.946 E117.53057
G0 F4200 X62.058 Y29.370
G1 F2760 X38.411 Y53.017 E118.12494
G0 F4200 X38.411 Y53.441
G1 F2760 X62.058 Y29.794 E118.71932
G0 F4200 X62.058 Y30.218
G1 F2760 X38.411 Y53.865 E119.31370
G0 F4200 X38.410 Y54.290
G1 F2760 X62.058 Y30.643 E119.90808
G0 F4200 X62.058 Y31.067
G1 F2760 X38.410 Y54.715 E120.50249
G0 F4200 X38.410 Y55.139
G1 F2760 X62.058 Y31.491 E121.09689
G0 F4200 X62.058 Y31.915
G1 F2760 X38.410 Y55.563 E121.69129
G0 F4200 X38.410 Y55.988
G1 F2760 X62.058 Y32.340 E122.28569
G0 F4200 X62.058 Y32.764
G1 F2760 X38.410 Y56.412 E122.88009
G0 F4200 X38.410 Y56.837
G1 F2760 X62.058 Y33.188 E123.47450
G0 F4200 X62.058 Y33.613
G1 F2760 X38.409 Y57.262 E124.06893
G0 F4200 X38.409 Y57.686
G1 F2760 X62.058 Y34.037 E124.66336
G0 F4200 X62.058 Y34.461
G1 F2760 X38.409 Y58.110 E125.25778
G0 F4200 X38.409 Y58.535
G1 F2760 X62.058 Y34.885 E125.85222
G0 F4200 X62.058 Y35.310
G1 F2760 X38.408 Y58.959 E126.44666
G0 F4200 X38.408 Y59.384
G1 F2760 X62.058 Y35.734 E127.04111
G0 F4200 X62.058 Y36.158
G1 F2760 X38.408 Y59.808 E127.63556
G0 F4200 X38.407 Y60.233
G1 F2760 X62.058 Y36.582 E128.23004
G0 F4200 X62.058 Y37.007
G1 F2760 X38.407 Y60.657 E128.82450
G0 F4200 X38.407 Y61.082
G1 F2760 X62.058 Y37.431 E129.41898
G0 F4200 X62.058 Y37.855
